kiosk-igrinskij/images/4937a209443ff1bb10eb61345f2ad608.svg

<svg fill="none" height="24" viewBox="0 0 28 24" width="28" xmlns="http://www.w3.org/2000/svg"><g fill="#000"><path d="m26.293 7.29517-3.9989 3.99803 1.4141 1.4144 3.9988-3.99808zm-3.9989 3.99803-4.0011 4.0004 1.414 1.4144 4.0012-4.0004zm5.4129 3.9981-3.9988-3.9981-1.4141 1.4144 3.9989 3.998zm-3.9988-3.9981-4.0012-4.00038-1.414 1.41436 4.0011 4.00042z"/><path d="m10 5h-10v14h10z"/><path d="m.00000006 12 16.99999994 12v-24z"/></g></svg>

<svg width="28" height="24" viewBox="0 0 28 24" fill="none" xmlns="http://www.w3.org/2000/svg">
<path d="M26.293 7.29517L22.2941 11.2932L23.7082 12.7076L27.707 8.70952L26.293 7.29517ZM22.2941 11.2932L18.293 15.2936L19.707 16.708L23.7082 12.7076L22.2941 11.2932ZM27.707 15.2913L23.7082 11.2932L22.2941 12.7076L26.293 16.7056L27.707 15.2913ZM23.7082 11.2932L19.707 7.29282L18.293 8.70718L22.2941 12.7076L23.7082 11.2932Z" fill="black"/>
<path d="M10 5H0V19H10V5Z" fill="black"/>
<path d="M5.52136e-08 12L17 24V0L5.52136e-08 12Z" fill="black"/>
</svg>
